icons/evolvere-blue-folders-flat-vivid-dark-fallback/apps/64/activities.svg

<svg xmlns="http://www.w3.org/2000/svg" xmlns:xlink="http://www.w3.org/1999/xlink" viewBox="0 0 64 64"><defs><rect id="2" width="11" x="-21.06" y="24.905" rx="5.5" height="18" color="#000"/><path id="3" d="m40 34a8 8 0 0 1 -8 8 8 8 0 0 1 -8 -8 8 8 0 0 1 8 -8 8 8 0 0 1 8 8" color="#000"/><radialGradient id="0" gradientUnits="userSpaceOnUse" gradientTransform="matrix(1.66844 0 0 1.56416-21.39-9.155)" cx="32" cy="18" r="32"><stop stop-color="#577caa"/><stop offset="1" stop-color="#5a4c75"/></radialGradient><radialGradient id="1" cx="32" cy="33" r="32" gradientTransform="matrix(1.46094 0 0 .31252-14.75-6.376)" gradientUnits="userSpaceOnUse"><stop stop-color="#99c0ee"/><stop offset="1" stop-color="#a390c7"/></radialGradient></defs><g color="#000"><path d="m0 4v30 28l2 2h30 30l2-2v-28-30h-32-32" fill="url(#0)"/><path d="m2 0l-2 1v3h32 32v-3l-2-1h-30-30" fill="url(#1)"/><path d="m0 4v30 28l2 2h19v-60h-21" fill="#2c89cb"/><path d="m2 0l-2 1v3h21v-4h-19" fill="#67c6ff"/><path transform="scale(-1 1)" fill="#bd4130" d="m-43 4h22v60h-22z"/><path d="m21 0v4h11 11v-4h-11-11" fill="#ff6d2b"/><path d="m43 4v60h19l2-2v-28-30h-21" fill="#62b237"/><path d="m43 0v4h21v-3l-2-1h-19" fill="#7ef546"/></g><use transform="matrix(.70711-.70711.70711.70711 0 0)" fill="#002138" fill-opacity=".16" xlink:href="#2"/><g color="#000"><path transform="matrix(.59539-.34375.34375.59539-20.24 23.257)" d="m40 34a8 8 0 1 1 -16 0 8 8 0 1 1 16 0" fill="#fff"/><path d="m40 34a8 8 0 1 1 -16 0 8 8 0 1 1 16 0" transform="matrix(.6875 0 0 .6875-11.5 10.125)" fill="#cacdd0"/></g><use transform="matrix(.70711-.70711.70711.70711 21.506 0)" fill="#470900" fill-opacity=".2" xlink:href="#2"/><use transform="matrix(.59539-.34375.34375.59539 1.266 23.257)" fill="#fff" xlink:href="#3"/><use transform="matrix(.6875 0 0 .6875 10.01 10.125)" fill="#cacdd0" xlink:href="#3"/><use transform="matrix(.70711-.70711.70711.70711 43.01 0)" fill="#1d5300" fill-opacity=".281" xlink:href="#2"/><use transform="matrix(.59539-.34375.34375.59539 22.766 23.257)" fill="#fff" xlink:href="#3"/><use transform="matrix(.6875 0 0 .6875 31.506 10.125)" fill="#cacdd0" xlink:href="#3"/><path d="m0 3v3l2-2" fill="#7dd7ff"/><path d="m64 6l-2-2 2-1z" fill="#71d53f"/></svg>

<?xml version="1.0" encoding="UTF-8" standalone="no"?>
<!-- Created with Inkscape (http://www.inkscape.org/) -->

<svg
   xmlns:dc="http://purl.org/dc/elements/1.1/"
   xmlns:cc="http://creativecommons.org/ns#"
   xmlns:rdf="http://www.w3.org/1999/02/22-rdf-syntax-ns#"
   xmlns:svg="http://www.w3.org/2000/svg"
   xmlns="http://www.w3.org/2000/svg"
   xmlns:xlink="http://www.w3.org/1999/xlink"
   xmlns:sodipodi="http://sodipodi.sourceforge.net/DTD/sodipodi-0.dtd"
   xmlns:inkscape="http://www.inkscape.org/namespaces/inkscape"
   width="64"
   height="64"
   id="svg13094"
   version="1.1"
   inkscape:version="0.91+devel r"
   sodipodi:docname="activities.svg">
  <sodipodi:namedview
     id="base"
     pagecolor="#ffffff"
     bordercolor="#666666"
     borderopacity="1.0"
     inkscape:pageopacity="0"
     inkscape:pageshadow="2"
     inkscape:zoom="8.0000004"
     inkscape:cx="39.861884"
     inkscape:cy="32.227237"
     inkscape:document-units="px"
     inkscape:current-layer="svg13094"
     showgrid="true"
     inkscape:snap-bbox="true"
     inkscape:bbox-paths="true"
     inkscape:bbox-nodes="true"
     inkscape:snap-bbox-edge-midpoints="true"
     inkscape:snap-bbox-midpoints="true"
     inkscape:object-paths="true"
     inkscape:snap-intersection-paths="true"
     inkscape:object-nodes="true"
     inkscape:snap-smooth-nodes="true"
     inkscape:snap-midpoints="true"
     inkscape:snap-object-midpoints="true"
     inkscape:snap-center="true"
     showguides="false"
     inkscape:guide-bbox="true"
     inkscape:window-width="1920"
     inkscape:window-height="1023"
     inkscape:window-x="-10"
     inkscape:window-y="35"
     inkscape:window-maximized="1"
     inkscape:snap-global="true"
     fit-margin-top="0"
     fit-margin-left="0"
     fit-margin-right="0"
     fit-margin-bottom="0"
     showborder="true"
     inkscape:showpageshadow="false"
     inkscape:snap-page="true">
    <inkscape:grid
       type="xygrid"
       id="grid3075"
       empspacing="5"
       visible="true"
       enabled="true"
       snapvisiblegridlinesonly="true"
       originx="1.6362304e-08px"
       originy="18px" />
    <sodipodi:guide
       orientation="0,1"
       position="10.5,30.5"
       id="guide3883" />
    <sodipodi:guide
       orientation="1,0"
       position="10.5,30"
       id="guide3885" />
  </sodipodi:namedview>
  <defs
     id="defs13096">
    <linearGradient
       id="linearGradient4317">
      <stop
         offset="0"
         style="stop-color:#99c0ee;stop-opacity:1;"
         id="stop4319" />
      <stop
         offset="1"
         style="stop-color:#a390c7;stop-opacity:1;"
         id="stop4321" />
    </linearGradient>
    <radialGradient
       inkscape:collect="always"
       xlink:href="#linearGradient5602-5"
       id="radialGradient4097"
       gradientUnits="userSpaceOnUse"
       gradientTransform="matrix(1.6684368,0,0,1.5641595,-21.389979,-9.1548717)"
       cx="32"
       cy="18"
       fx="32"
       fy="18"
       r="32" />
    <linearGradient
       id="linearGradient5602-5">
      <stop
         id="stop5604-7"
         style="stop-color:#577caa;stop-opacity:1;"
         offset="0" />
      <stop
         id="stop5606-1"
         style="stop-color:#5a4c75;stop-opacity:1;"
         offset="1" />
    </linearGradient>
    <radialGradient
       inkscape:collect="always"
       xlink:href="#linearGradient4317"
       id="radialGradient4225"
       cx="32"
       cy="32.999996"
       fx="32"
       fy="32.999996"
       r="32"
       gradientTransform="matrix(1.4609427,0,0,0.31251933,-14.750166,-6.3756364)"
       gradientUnits="userSpaceOnUse" />
  </defs>
  <metadata
     id="metadata13099">
    <rdf:RDF>
      <cc:Work
         rdf:about="">
        <dc:format>image/svg+xml</dc:format>
        <dc:type
           rdf:resource="http://purl.org/dc/dcmitype/StillImage" />
        <dc:title></dc:title>
      </cc:Work>
    </rdf:RDF>
  </metadata>
  <path
     inkscape:connector-curvature="0"
     style="color:#000000;fill:url(#radialGradient4097);fill-opacity:1;fill-rule:nonzero;stroke:none;stroke-width:2.28571415000000000;marker:none;visibility:visible;display:inline;overflow:visible;enable-background:accumulate"
     d="m 0,4 0,30 0,28 2,2 30,0 30,0 2,-2 L 64,34 64,4 32,4 0,4 z"
     id="path4095" />
  <path
     inkscape:connector-curvature="0"
     style="color:#000000;fill:url(#radialGradient4225);fill-opacity:1;fill-rule:nonzero;stroke:none;stroke-width:2.28571415000000000;marker:none;visibility:visible;display:inline;overflow:visible;enable-background:accumulate"
     d="M 2,0 0,1 0,4 32,4 64,4 64,1 62,0 32,0 2,0 z"
     id="path4090" />
  <g
     id="g3043"
     inkscape:export-filename="folder.png"
     inkscape:export-xdpi="90"
     inkscape:export-ydpi="90"
     transform="translate(-0.62500009,0.082283)" />
  <g
     id="scalable"
     transform="matrix(1.0385892,0,0,1.0385892,1214.7222,1878.8121)"
     inkscape:label="#g3701"
     style="fill:#ffffff" />
  <path
     style="color:#000000;fill:#2c89cb;fill-opacity:1;fill-rule:nonzero;stroke:none;stroke-width:2;marker:none;visibility:visible;display:inline;overflow:visible;enable-background:accumulate"
     d="M 0 4 L 0 34 L 0 62 L 2 64 L 21 64 L 21 4 L 0 4 z "
     id="rect3061" />
  <path
     style="color:#000000;fill:#67c6ff;fill-opacity:1;fill-rule:nonzero;stroke:none;stroke-width:2;marker:none;visibility:visible;display:inline;overflow:visible;enable-background:accumulate"
     d="M 2 0 L 0 1 L 0 4 L 21 4 L 21 0 L 2 0 z "
     id="rect3047" />
  <rect
     transform="scale(-1,1)"
     y="4"
     x="-43"
     height="60"
     width="21.999998"
     id="rect3841"
     style="color:#000000;fill:#bd4130;fill-opacity:1;fill-rule:nonzero;stroke:none;stroke-width:2;marker:none;visibility:visible;display:inline;overflow:visible;enable-background:accumulate" />
  <path
     style="color:#000000;fill:#ff6d2b;fill-opacity:1;fill-rule:nonzero;stroke:none;stroke-width:2;marker:none;visibility:visible;display:inline;overflow:visible;enable-background:accumulate"
     d="M 21 0 L 21 4 L 32 4 L 43 4 L 43 0 L 32 0 L 21 0 z "
     id="rect3049" />
  <path
     style="color:#000000;fill:#62b237;fill-opacity:1;fill-rule:nonzero;stroke:none;stroke-width:2;marker:none;visibility:visible;display:inline;overflow:visible;enable-background:accumulate"
     d="M 43 4 L 43 64 L 62 64 L 64 62 L 64 34 L 64 4 L 43 4 z "
     id="rect3069" />
  <path
     style="color:#000000;fill:#7ef546;fill-opacity:1;fill-rule:nonzero;stroke:none;stroke-width:2;marker:none;visibility:visible;display:inline;overflow:visible;enable-background:accumulate"
     d="M 43 0 L 43 4 L 64 4 L 64 1 L 62 0 L 43 0 z "
     id="rect3045" />
  <g
     id="g3904">
    <rect
       style="color:#000000;fill:#002138;fill-opacity:0.16010733;fill-rule:nonzero;stroke:none;stroke-width:2;marker:none;visibility:visible;display:inline;overflow:visible;enable-background:accumulate"
       id="rect3906"
       width="11"
       height="18"
       x="-21.057785"
       y="24.904997"
       rx="5.5"
       ry="5.5"
       inkscape:transform-center-y="2.4734391"
       transform="matrix(0.70710678,-0.70710678,0.70710678,0.70710678,0,0)"
       inkscape:transform-center-x="-2.4734379" />
    <path
       transform="matrix(0.59539247,-0.34375,0.34375,0.59539247,-20.240059,23.256656)"
       d="m 40,34 a 8,8 0 1 1 -16,0 8,8 0 1 1 16,0 z"
       sodipodi:ry="8"
       sodipodi:rx="8"
       sodipodi:cy="34"
       sodipodi:cx="32"
       id="path3908"
       style="color:#000000;fill:#ffffff;fill-opacity:1;fill-rule:nonzero;stroke:none;stroke-width:2;marker:none;visibility:visible;display:inline;overflow:visible;enable-background:accumulate"
       sodipodi:type="arc" />
    <path
       sodipodi:type="arc"
       style="color:#000000;fill:#cacdd0;fill-opacity:1;fill-rule:nonzero;stroke:none;stroke-width:2;marker:none;visibility:visible;display:inline;overflow:visible;enable-background:accumulate"
       id="path3910"
       sodipodi:cx="32"
       sodipodi:cy="34"
       sodipodi:rx="8"
       sodipodi:ry="8"
       d="m 40,34 a 8,8 0 1 1 -16,0 8,8 0 1 1 16,0 z"
       transform="matrix(0.6875,0,0,0.6875,-11.5,10.125)" />
  </g>
  <g
     transform="translate(21.50644,0)"
     id="g3916">
    <rect
       style="color:#000000;fill:#470900;fill-opacity:0.20035778;fill-rule:nonzero;stroke:none;stroke-width:2;marker:none;visibility:visible;display:inline;overflow:visible;enable-background:accumulate"
       id="rect3918"
       width="11"
       height="18"
       x="-21.057785"
       y="24.904997"
       rx="5.5"
       ry="5.5"
       inkscape:transform-center-y="2.4734391"
       transform="matrix(0.70710678,-0.70710678,0.70710678,0.70710678,0,0)"
       inkscape:transform-center-x="-2.4734379" />
    <path
       transform="matrix(0.59539247,-0.34375,0.34375,0.59539247,-20.240059,23.256656)"
       d="m 40,34 a 8,8 0 0 1 -8,8 8,8 0 0 1 -8,-8 8,8 0 0 1 8,-8 8,8 0 0 1 8,8 z"
       sodipodi:ry="8"
       sodipodi:rx="8"
       sodipodi:cy="34"
       sodipodi:cx="32"
       id="path3920"
       style="color:#000000;fill:#ffffff;fill-opacity:1;fill-rule:nonzero;stroke:none;stroke-width:2;marker:none;visibility:visible;display:inline;overflow:visible;enable-background:accumulate"
       sodipodi:type="arc" />
    <path
       sodipodi:type="arc"
       style="color:#000000;fill:#cacdd0;fill-opacity:1;fill-rule:nonzero;stroke:none;stroke-width:2;marker:none;visibility:visible;display:inline;overflow:visible;enable-background:accumulate"
       id="path3922"
       sodipodi:cx="32"
       sodipodi:cy="34"
       sodipodi:rx="8"
       sodipodi:ry="8"
       d="m 40,34 a 8,8 0 0 1 -8,8 8,8 0 0 1 -8,-8 8,8 0 0 1 8,-8 8,8 0 0 1 8,8 z"
       transform="matrix(0.6875,0,0,0.6875,-11.5,10.125)" />
  </g>
  <g
     id="g3899"
     transform="translate(43.00644,0)">
    <rect
       inkscape:transform-center-x="-2.4734379"
       transform="matrix(0.70710678,-0.70710678,0.70710678,0.70710678,0,0)"
       inkscape:transform-center-y="2.4734391"
       ry="5.5"
       rx="5.5"
       y="24.904997"
       x="-21.057785"
       height="18"
       width="11"
       id="rect3881"
       style="color:#000000;fill:#1d5300;fill-opacity:0.28085867;fill-rule:nonzero;stroke:none;stroke-width:2;marker:none;visibility:visible;display:inline;overflow:visible;enable-background:accumulate" />
    <path
       sodipodi:type="arc"
       style="color:#000000;fill:#ffffff;fill-opacity:1;fill-rule:nonzero;stroke:none;stroke-width:2;marker:none;visibility:visible;display:inline;overflow:visible;enable-background:accumulate"
       id="path3051"
       sodipodi:cx="32"
       sodipodi:cy="34"
       sodipodi:rx="8"
       sodipodi:ry="8"
       d="m 40,34 a 8,8 0 0 1 -8,8 8,8 0 0 1 -8,-8 8,8 0 0 1 8,-8 8,8 0 0 1 8,8 z"
       transform="matrix(0.59539247,-0.34375,0.34375,0.59539247,-20.240059,23.256656)" />
    <path
       transform="matrix(0.6875,0,0,0.6875,-11.5,10.125)"
       d="m 40,34 a 8,8 0 0 1 -8,8 8,8 0 0 1 -8,-8 8,8 0 0 1 8,-8 8,8 0 0 1 8,8 z"
       sodipodi:ry="8"
       sodipodi:rx="8"
       sodipodi:cy="34"
       sodipodi:cx="32"
       id="path3887"
       style="color:#000000;fill:#cacdd0;fill-opacity:1;fill-rule:nonzero;stroke:none;stroke-width:2;marker:none;visibility:visible;display:inline;overflow:visible;enable-background:accumulate"
       sodipodi:type="arc" />
  </g>
  <path
     style="fill:#7dd7ff;fill-opacity:1;fill-rule:nonzero"
     d="M 0,3 0,6 2,4 Z"
     id="path4298"
     inkscape:connector-curvature="0"
     sodipodi:nodetypes="cccc" />
  <path
     d="M 64,6 62,4 64,3 z"
     id="path3028"
     style="fill:#71d53f;fill-opacity:1"
     inkscape:connector-curvature="0" />
</svg>
